X:650
T:Young William Plunkett
C:O'Carolan
B:O'Neill's 650
Z: 1997 by John Chambers <jc@trillian.mit.edu>
N:"Lively"
M:C
L:1/8
K:G
D \
|""G2GG [g2B2]gf|efed B2Bd|efge fedcB|ABAG E2Ez|
|GABG g2gf|efed B2cB|A/B/c BA B2AB|GEDE G2Gz|
|""G2AB ""G2AB|cd2de dBAG|G2GG [g2B2]gf|efed B2z2|
|cBABd fedef|""gfgd ""BABd|""efge dBAB|GEDE G2z|]
